X:4
T:The Girl in Portland Street
M:C|
L:1/8
Q:1/4=120
S:Stan Hugill
B:Shanties from the Seven Seas
K:Bb
F2|\
B2F2 B2F2|D2C2 B,2FF|B2FF B2FF|D2C2 B,2B2|
d2d2 c2c2|B2B2 A2FF |GGG2 B4  |FFF2 B4   |
EEEE F2A2|B2B,2 B,2||
